X:164
T:Lord Cathcart. RH.164
R:jig
S:Rev.R.Harrison’s MS,c1815,Cumbria
O:England
A:Temple Sowerby,Cumbria
Z:vmp.Simon Wilson. Review PJH, 2008.
M:6/8
L:1/8
Q:3/8=100
K:G
D|DGB d2d|dcB A2c|BGd cAe|(G3 F2)D|!
DGB d2d|dcB A2c|cBG BAF|(A3 G2):|!
|:d|def gfg|gfe d2d|ecB Ace|(G3 F2)A|!
AB^c def|B3 g3|fed ed^c|de^c def|!
gdB GBd|dcB A2c|BGd cAe|(G3 F2)D|!
DGB d2d|dcB A2c|cBG BAF|(A3 G2):|

